src/assets/logo.svg

<?xml version="1.0" encoding="UTF-8"?>
<svg width="195px" height="35px" viewBox="0 0 195 35" version="1.1" xmlns="http://www.w3.org/2000/svg" xmlns:xlink="http://www.w3.org/1999/xlink">
    <!-- Generator: Sketch 53.2 (72643) - https://sketchapp.com -->
    <title>logo</title>
    <desc>Created with Sketch.</desc>
    <g id="Mobile" stroke="none" stroke-width="1" fill="none" fill-rule="evenodd">
        <g id="Home" transform="translate(-90.000000, -325.000000)" fill="#7159C1" fill-rule="nonzero">
            <g id="Group" transform="translate(30.000000, 325.000000)">
                <g id="logo" transform="translate(60.000000, 0.000000)">
                    <g id="Group-3">
                        <path d="M7.97322498,13.4955137 L19.0000238,20.3035575 L11.3660862,26.6651722 L0.428573132,19.544628 L7.97322498,13.4955137 Z M29.9821798,25.8839213 L29.9821798,28.2946384 L19.0446668,34.8348248 L19.0446668,34.8571463 L19.0223453,34.8348248 L19.0000238,34.8571463 L19.0000238,34.8348248 L8.08483226,28.2946384 L8.08483226,25.8839213 L11.3660862,28.026781 L19.0000238,21.6874877 L19.0000238,21.6428448 L19.0223453,21.6651663 L19.0446668,21.6428448 L19.0446668,21.6874877 L26.7009259,28.026781 L29.9821798,25.8839213 Z M11.3660862,0.348176554 L19.0000238,6.70979128 L7.97322498,13.4955137 L0.428573132,7.46872076 L11.3660862,0.348176554 Z M30.0268227,13.4955137 L37.5714746,19.544628 L26.656283,26.6651722 L19.0000238,20.3035575 L30.0268227,13.4955137 Z M26.656283,0.348176554 L37.5714746,7.46872076 L30.0268227,13.4955137 L19.0000238,6.70979128 L26.656283,0.348176554 Z" id=""></path>
                        <path d="M61.7083333,13.140625 L61.7083333,18.296875 L66.2526042,18.296875 C67.1553865,18.296875 67.832463,18.1927094 68.2838542,17.984375 C69.0824693,17.6197898 69.4817708,16.8993109 69.4817708,15.8229167 C69.4817708,14.6597164 69.09549,13.8784742 68.3229167,13.4791667 C67.8888867,13.2534711 67.2378516,13.140625 66.3697917,13.140625 L61.7083333,13.140625 Z M67.203125,9.80729167 C68.5486178,9.83333346 69.5837637,9.99826237 70.3085937,10.3020833 C71.0334238,10.6059043 71.6475669,11.0529484 72.1510417,11.6432292 C72.5677104,12.1293427 72.8975682,12.6675318 73.140625,13.2578125 C73.3836818,13.8480932 73.5052083,14.5208296 73.5052083,15.2760417 C73.5052083,16.1875046 73.2751759,17.083763 72.8151042,17.9648438 C72.3550324,18.8459245 71.5954914,19.4687482 70.5364583,19.8333333 C71.4218794,20.1892379 72.0490433,20.6948752 72.4179687,21.3502604 C72.7868942,22.0056456 72.9713542,23.0060697 72.9713542,24.3515625 L72.9713542,25.640625 C72.9713542,26.5173655 73.006076,27.1119776 73.0755208,27.4244792 C73.179688,27.9192733 73.4227411,28.283853 73.8046875,28.5182292 L73.8046875,29 L69.390625,29 C69.2690966,28.5746507 69.1822919,28.2317721 69.1302083,27.9713542 C69.0260411,27.433157 68.9696181,26.8819473 68.9609375,26.3177083 L68.9348958,24.5338542 C68.9175346,23.3098897 68.6940126,22.4939257 68.2643229,22.0859375 C67.8346333,21.6779493 67.0295198,21.4739583 65.8489583,21.4739583 L61.7083333,21.4739583 L61.7083333,29 L57.7890625,29 L57.7890625,9.80729167 L67.203125,9.80729167 Z M83.0234375,26.3828125 C84.1085124,26.3828125 84.9418374,25.9965316 85.5234375,25.2239583 C86.1050376,24.451385 86.3958333,23.3533057 86.3958333,21.9296875 C86.3958333,20.5060693 86.1050376,19.4101601 85.5234375,18.6419271 C84.9418374,17.8736941 84.1085124,17.4895833 83.0234375,17.4895833 C81.9383626,17.4895833 81.1028675,17.8736941 80.5169271,18.6419271 C79.9309867,19.4101601 79.6380208,20.5060693 79.6380208,21.9296875 C79.6380208,23.3533057 79.9309867,24.451385 80.5169271,25.2239583 C81.1028675,25.9965316 81.9383626,26.3828125 83.0234375,26.3828125 Z M90.2890625,21.9296875 C90.2890625,24.0130313 89.6901102,25.7946975 88.4921875,27.2747396 C87.2942648,28.7547817 85.4757066,29.4947917 83.0364583,29.4947917 C80.59721,29.4947917 78.7786518,28.7547817 77.5807292,27.2747396 C76.3828065,25.7946975 75.7838542,24.0130313 75.7838542,21.9296875 C75.7838542,19.8810661 76.3828065,18.1059103 77.5807292,16.6041667 C78.7786518,15.102423 80.59721,14.3515625 83.0364583,14.3515625 C85.4757066,14.3515625 87.2942648,15.102423 88.4921875,16.6041667 C89.6901102,18.1059103 90.2890625,19.8810661 90.2890625,21.9296875 Z M101.421875,19.8984375 C101.35243,19.368921 101.174481,18.8914952 100.888021,18.4661458 C100.471352,17.8932263 99.8246572,17.6067708 98.9479167,17.6067708 C97.6979104,17.6067708 96.8428842,18.2274243 96.3828125,19.46875 C96.1397557,20.1284755 96.0182292,21.0052029 96.0182292,22.0989583 C96.0182292,23.1406302 96.1397557,23.9782954 96.3828125,24.6119792 C96.825523,25.7925406 97.658848,26.3828125 98.8828125,26.3828125 C99.7508724,26.3828125 100.367186,26.1484398 100.731771,25.6796875 C101.096356,25.2109352 101.317708,24.6033023 101.395833,23.8567708 L105.184896,23.8567708 C105.09809,24.9852487 104.690108,26.0529464 103.960937,27.0598958 C102.797737,28.6831678 101.074664,29.4947917 98.7916667,29.4947917 C96.5086691,29.4947917 94.8289984,28.8177151 93.7526042,27.4635417 C92.6762099,26.1093682 92.1380208,24.3515733 92.1380208,22.1901042 C92.1380208,19.7508559 92.7326329,17.8541734 93.921875,16.5 C95.1111171,15.1458266 96.7517257,14.46875 98.84375,14.46875 C100.623273,14.46875 102.079421,14.8680516 103.21224,15.6666667 C104.345058,16.4652818 105.015624,17.8758579 105.223958,19.8984375 L101.421875,19.8984375 Z M107.736979,9.87239583 L111.382812,9.87239583 L111.382812,20.2109375 L116.005208,14.8723958 L120.601562,14.8723958 L115.640625,20.3020833 L120.796875,29 L116.317708,29 L112.919271,22.9322917 L111.382812,24.5338542 L111.382812,29 L107.736979,29 L107.736979,9.87239583 Z M128.205729,17.4895833 C127.34635,17.4895833 126.680124,17.7586779 126.207031,18.296875 C125.733939,18.8350721 125.436633,19.5642315 125.315104,20.484375 L131.083333,20.484375 C131.022569,19.5034673 130.725263,18.7591171 130.191406,18.2513021 C129.657549,17.743487 128.995664,17.4895833 128.205729,17.4895833 Z M128.205729,14.4296875 C129.386291,14.4296875 130.449648,14.6510395 131.395833,15.09375 C132.342019,15.5364605 133.123261,16.2352383 133.739583,17.1901042 C134.295142,18.0321223 134.655381,19.008675 134.820312,20.1197917 C134.915799,20.7708366 134.954861,21.7083272 134.9375,22.9322917 L125.223958,22.9322917 C125.276042,24.3559099 125.723086,25.3541638 126.565104,25.9270833 C127.07726,26.2829879 127.693573,26.4609375 128.414062,26.4609375 C129.177955,26.4609375 129.798609,26.2439258 130.276042,25.8098958 C130.53646,25.5755197 130.766492,25.2500021 130.966146,24.8333333 L134.755208,24.8333333 C134.659722,25.6753514 134.221358,26.5303776 133.440104,27.3984375 C132.22482,28.7786527 130.523448,29.46875 128.335937,29.46875 C126.530373,29.46875 124.937507,28.8871586 123.557292,27.7239583 C122.177076,26.5607581 121.486979,24.6684159 121.486979,22.046875 C121.486979,19.5902655 122.109803,17.7066038 123.355469,16.3958333 C124.601135,15.0850629 126.217872,14.4296875 128.205729,14.4296875 Z M135.979167,17.5807292 L135.979167,14.9375 L137.958333,14.9375 L137.958333,10.9791667 L141.630208,10.9791667 L141.630208,14.9375 L143.934896,14.9375 L143.934896,17.5807292 L141.630208,17.5807292 L141.630208,25.0807292 C141.630208,25.6623293 141.703992,26.0247389 141.851562,26.1679688 C141.999133,26.3111986 142.450517,26.3828125 143.205729,26.3828125 C143.318577,26.3828125 143.437933,26.3806424 143.563802,26.3763021 C143.689671,26.3719618 143.813367,26.3654514 143.934896,26.3567708 L143.934896,29.1302083 L142.177083,29.1953125 C140.423602,29.2560767 139.225698,28.9522603 138.583333,28.2838542 C138.166665,27.8585048 137.958333,27.2031294 137.958333,26.3177083 L137.958333,17.5807292 L135.979167,17.5807292 Z M150.510417,13.140625 L150.510417,17.3723958 L155.223958,17.3723958 C156.065976,17.3723958 156.749563,17.2139773 157.27474,16.8971354 C157.799916,16.5802936 158.0625,16.0182332 158.0625,15.2109375 C158.0625,14.3168358 157.715281,13.7265639 157.020833,13.4401042 C156.421872,13.2404504 155.657991,13.140625 154.729167,13.140625 L150.510417,13.140625 Z M150.510417,20.5494792 L150.510417,25.6666667 L155.223958,25.6666667 C156.065976,25.6666667 156.721352,25.5538206 157.190104,25.328125 C158.040803,24.9114563 158.466146,24.1128531 158.466146,22.9322917 C158.466146,21.9340228 158.053824,21.2482658 157.229167,20.875 C156.769095,20.6666656 156.1224,20.5581598 155.289062,20.5494792 L150.510417,20.5494792 Z M156.005208,9.80729167 C158.357651,9.84201406 160.024301,10.5234309 161.005208,11.8515625 C161.595489,12.6675388 161.890625,13.6440915 161.890625,14.78125 C161.890625,15.9531309 161.595489,16.8949617 161.005208,17.6067708 C160.675346,18.0060784 160.189239,18.3706581 159.546875,18.7005208 C160.527783,19.0564254 161.267793,19.6206559 161.766927,20.3932292 C162.266062,21.1658025 162.515625,22.1032931 162.515625,23.2057292 C162.515625,24.3428876 162.22917,25.3628427 161.65625,26.265625 C161.291665,26.8645863 160.83594,27.3680535 160.289062,27.7760417 C159.67274,28.244794 158.945751,28.5659714 158.108073,28.7395833 C157.270395,28.9131953 156.361116,29 155.380208,29 L146.682292,29 L146.682292,9.80729167 L156.005208,9.80729167 Z M171.942708,26.3828125 C173.027783,26.3828125 173.861108,25.9965316 174.442708,25.2239583 C175.024308,24.451385 175.315104,23.3533057 175.315104,21.9296875 C175.315104,20.5060693 175.024308,19.4101601 174.442708,18.6419271 C173.861108,17.8736941 173.027783,17.4895833 171.942708,17.4895833 C170.857633,17.4895833 170.022138,17.8736941 169.436198,18.6419271 C168.850257,19.4101601 168.557292,20.5060693 168.557292,21.9296875 C168.557292,23.3533057 168.850257,24.451385 169.436198,25.2239583 C170.022138,25.9965316 170.857633,26.3828125 171.942708,26.3828125 Z M179.208333,21.9296875 C179.208333,24.0130313 178.609381,25.7946975 177.411458,27.2747396 C176.213536,28.7547817 174.394977,29.4947917 171.955729,29.4947917 C169.516481,29.4947917 167.697923,28.7547817 166.5,27.2747396 C165.302077,25.7946975 164.703125,24.0130313 164.703125,21.9296875 C164.703125,19.8810661 165.302077,18.1059103 166.5,16.6041667 C167.697923,15.102423 169.516481,14.3515625 171.955729,14.3515625 C174.394977,14.3515625 176.213536,15.102423 177.411458,16.6041667 C178.609381,18.1059103 179.208333,19.8810661 179.208333,21.9296875 Z M180.471354,29 L185.315104,21.8125 L180.679687,14.8333333 L185.223958,14.8333333 L187.59375,18.9479167 L189.911458,14.8333333 L194.325521,14.8333333 L189.664062,21.7473958 L194.507812,29 L189.885417,29 L187.4375,24.7421875 L184.976562,29 L180.471354,29 Z" id="RocketBox"></path>
                    </g>
                </g>
            </g>
        </g>
    </g>
</svg>

<svg xmlns="http://www.w3.org/2000/svg" viewBox="0 0 205 35">
  <defs>
    <style>
      .cls-1, .cls-2 {
        fill: #ea2b3a;
      }

      .cls-2 {
        font-size: 30px;
        font-family: LucidaGrande-Bold, Lucida Grande;
        font-weight: 700;
      }
    </style>
  </defs>
  <g id="logo" transform="translate(-118 -99)">
    <path id="_" data-name="" class="cls-1" d="M7.973,13.5,19,20.3l-7.634,6.362L.429,19.545ZM29.982,25.884v2.411l-10.938,6.54v.022l-.022-.022L19,34.857v-.022L8.085,28.295V25.884l3.281,2.143L19,21.687v-.045l.022.022.022-.022v.045L26.7,28.027ZM11.366.348,19,6.71,7.973,13.5.429,7.469ZM30.027,13.5l7.545,6.049L26.656,26.665,19,20.3ZM26.656.348,37.571,7.469,30.027,13.5,19,6.71Z" transform="translate(117.571 98.652)"/>
    <text id="RaevixBox" class="cls-2" transform="translate(166 128)"><tspan x="0" y="0">RaevixBox</tspan></text>
  </g>
</svg>
